icons/svg/book-info.svg

<svg width="24" height="24" viewBox="0 0 24 24" fill="none" xmlns="http://www.w3.org/2000/svg">
<path d="M4.49997 16.625V6.125C4.49997 4.46815 5.84312 3.125 7.49997 3.125H18.5C19.0523 3.125 19.5 3.57272 19.5 4.125V16.625H7.375" stroke="currentColor" stroke-width="1.5" stroke-linecap="round" stroke-linejoin="round"/>
<path d="M4.49997 16.62V19" stroke="currentColor" stroke-width="1.5" stroke-linecap="round" stroke-linejoin="round"/>
<path d="M18.5 21.625H6.99997C5.61926 21.625 4.49997 20.5057 4.49997 19.125C4.49997 17.7443 5.61926 16.625 6.99997 16.625H19.5V20.625C19.5 21.1773 19.0523 21.625 18.5 21.625Z" stroke="currentColor" stroke-width="1.5" stroke-linecap="round" stroke-linejoin="round"/>
<path d="M12.0001 9.82544L12.0001 13.615" stroke="currentColor" stroke-width="1.5" stroke-linecap="round"/>
<ellipse cx="12" cy="6.59242" rx="1.1974" ry="1.1974" fill="currentColor"/>
</svg>

<svg xmlns="http://www.w3.org/2000/svg" width="24" height="24" fill="none" viewBox="0 0 24 24"><path stroke="currentColor" stroke-linecap="round" stroke-linejoin="round" stroke-width="1.5" d="M4.5 16.625v-10.5a3 3 0 0 1 3-3h11a1 1 0 0 1 1 1v12.5H7.375M4.5 16.62V19"/><path stroke="currentColor" stroke-linecap="round" stroke-linejoin="round" stroke-width="1.5" d="M18.5 21.625H7a2.5 2.5 0 0 1 0-5h12.5v4a1 1 0 0 1-1 1"/><path stroke="currentColor" stroke-linecap="round" stroke-width="1.5" d="M12 9.825v3.79"/><circle cx="12" cy="6.592" r="1.197" fill="currentColor"/></svg>
